!!!COM: Anonymous
!!!OTL@@LAT: Benedicam Dominum
!!!TXO: Latin
!!!ODT: 
!!!GTL: Hymnbook L 1642
!!!ARL: Biblioteka Diecezjalna w Sandomierzu 
!!!voices:	4
**kern	**text	**kern	**text	**kern	**text	**kern	**text
*staff4	*staff4	*staff3	*staff3	*staff2	*staff2	*staff1	*staff1
*I"Basso	*	*I"Canto III	*	*I"Canto II	*	*I"Canto I	*
=1-	=1-	=1-	=1-	=1-	=1-	=1-	=1-
*clefF4	*	*clefG2	*	*clefG2	*	*clefG2	*
*k[]	*	*k[]	*	*k[]	*	*k[]	*
*met(c|)	*	*met(c|)	*	*met(c|)	*	*met(c|)	*
*M2/2	*	*M2/2	*	*M2/2	*	*M2/2	*
1r	.	1r	.	1r	.	2a/	Be-
.	.	.	.	.	.	2cc\	-ne-
=2	=2	=2	=2	=2	=2	=2	=2
1r	.	1r	.	1r	.	2b\	-di-
.	.	.	.	.	.	2a/	-cam
=3	=3	=3	=3	=3	=3	=3	=3
1r	.	1r	.	1r	.	2.g#/	Do-
.	.	.	.	.	.	4f#i/	-mi-
=4	=4	=4	=4	=4	=4	=4	=4
1r	.	1r	.	1r	.	1e	-num
=5	=5	=5	=5	=5	=5	=5	=5
1r	.	1r	.	2a/	Be-	2cc\	be-
.	.	.	.	2cc\	-ne-	2ee\	-ne-
=6	=6	=6	=6	=6	=6	=6	=6
1r	.	1r	.	2b\	-di-	2dd\	-di-
.	.	.	.	2a/	-cam	2cc\	-cam
=7	=7	=7	=7	=7	=7	=7	=7
1r	.	1r	.	2.g#/	Do-	2.b\	Do-
.	.	.	.	4f#i/	-mi-	4a/	-mi-
=8	=8	=8	=8	=8	=8	=8	=8
1r	.	1r	.	1g#i	-num	1b	-num
=9	=9	=9	=9	=9	=9	=9	=9
2C/	Be-	2g/	Be-	2cc\	be-	2ee\	be-
2C/	-ne-	2g/	-ne-	2ee\	-ne-	2gg\	-ne-
=10	=10	=10	=10	=10	=10	=10	=10
2F\	-di-	2a/	-di-	4a/	-di-	2cc\	-di-
.	.	.	.	4b\	.	.	.
2C/	-cam	2g/	-cam	2cc\	-cam	2ee\	-cam
=11	=11	=11	=11	=11	=11	=11	=11
2.G\	Do-	2.g/	Do-	2.b\	Do-	2.dd\	Do-
4G\	-mi-	4g/	-mi-	4b\	-mi-	4dd\	-mi-
=12	=12	=12	=12	=12	=12	=12	=12
1C	-num	1g	-num	1cc	-num	1cc	-num
=13	=13	=13	=13	=13	=13	=13	=13
1GG	in	1g	in	1b	in	1dd	in
=14	=14	=14	=14	=14	=14	=14	=14
2GG/	om-	2g/	om-	2b\	om-	2dd\	om-
2AA/	-ni	2f/	-ni	2a/	-ni	2cc\	-ni
=15	=15	=15	=15	=15	=15	=15	=15
2.E\	tem-	2.e/	tem-	2.g#/	tem-	2.b\	tem-
4E\	-po-	4e/	-po-	4g#/	-po-	4b\	-po-
=16	=16	=16	=16	=16	=16	=16	=16
1AA	-re	1e	-re	1a	-re	1a	-re
=17	=17	=17	=17	=17	=17	=17	=17
2E\	sem-	2e/	sem-	2g#/	sem-	2b\	sem-
2E\	-per	2e/	-per	2g#/	-per	2b\	-per
=18	=18	=18	=18	=18	=18	=18	=18
1AA	la~us	1e	la~us	1a	la~us	1cc	la~us
=19	=19	=19	=19	=19	=19	=19	=19
2D\	sem-	2d/	sem-	2f#/	sem-	2a/	sem-
2D\	-per	2d/	-per	2f#/	-per	2a/	-per
=20	=20	=20	=20	=20	=20	=20	=20
1GG	la~us	1d	la~us	1g	la~us	1b	la~us
=21	=21	=21	=21	=21	=21	=21	=21
1E	in	1e	in	1g	in	1b	in
=22	=22	=22	=22	=22	=22	=22	=22
2A\	o-	2e/	o-	2f#/	o-	2a/	o-
2E\	-re	2e/	-re	2e/	-re	2g/	-re
=23	=23	=23	=23	=23	=23	=23	=23
1BB	me-	1B	me-	1d#	me-	1f#	me-
=24	=24	=24	=24	=24	=24	=24	=24
1E	-o	1B	-o	1e	-o	1e	-o
=25	=25	=25	=25	=25	=25	=25	=25
2C/	sem-	2g/	sem-	2cc\	sem-	2ee\	sem-
2C/	-per	2g/	-per	2cc\	-per	2ee\	-per
=26	=26	=26	=26	=26	=26	=26	=26
1D	la~us	1a	la~us	1dd	la~us	1ff	la~us
=27	=27	=27	=27	=27	=27	=27	=27
2GG/	sem-	2g/	sem-	2b\	sem-	2dd\	sem-
2GG/	-per	2g/	-per	2b\	-per	2dd\	-per
=28	=28	=28	=28	=28	=28	=28	=28
1C	la~us	1g	la~us	1cc	la~us	1ee	la~us
=29	=29	=29	=29	=29	=29	=29	=29
2AA/	la~us	2a/	la~us	2a/	la~us	2cc\	la~us
2AA/	in	2e/	in	2cc\	in	2ee\	in
=30	=30	=30	=30	=30	=30	=30	=30
2D\	o-	2f/	o-	4b\	o-	4dd\	o-
.	.	.	.	4cc\	.	4ee\	.
2AA/	-re	2e/	-re	4b\	-re	4dd\	-re
.	.	.	.	4a/	.	4cc\	.
=31	=31	=31	=31	=31	=31	=31	=31
1E	me-	1e	me-	1g#	me-	1b	me-
=32	=32	=32	=32	=32	=32	=32	=32
1AA	-o	1e	-o	1a	-o	1a	-o
=33||	=33||	=33||	=33||	=33||	=33||	=33||	=33||
1r	.	1r	.	2a/	Be-	2a/	Be-
.	.	.	.	2b\	-ne-	2b\	-ne-
=34	=34	=34	=34	=34	=34	=34	=34
2A\	Be-	2e/	Be-	2cc\	-di-	2cc\	-di-
2G#\	-ne-	2e/	-ne-	2b\	-cam	2b\	-cam
=35	=35	=35	=35	=35	=35	=35	=35
2A\	-di-	2e/	-di-	4.a/	Do-	4.a/	Do-
.	.	.	.	8a/	-mi-	8a/	-mi-
2E\	-cam	2e/	-cam	2g#/	-num	2g#/	-num
=36	=36	=36	=36	=36	=36	=36	=36
4.A\	Do-	4.e/	Do-	2a/	be-	2a/	be-
8A\	-mi-	8e/	-mi-	.	.	.	.
2E\	-num	2e/	-num	2b\	-ne-	2b\	-ne-
=37	=37	=37	=37	=37	=37	=37	=37
2A\	Be-	2e/	Be-	2cc\	-di-	2cc\	-di-
2G#\	-ne-	2e/	-ne-	2b\	-cam	2b\	-cam
=38	=38	=38	=38	=38	=38	=38	=38
2A\	-di-	2e/	-di-	4.a/	Do-	4.a/	Do-
.	.	.	.	8a/	-mi-	8a/	-mi-
2E\	-cam	2e/	-cam	2g#/	-num	2g#/	-num
=39	=39	=39	=39	=39	=39	=39	=39
4.AA/	Do-	4.e/	Do-	4.a/	Do-	1r	.
8AA/	-mi-	8e/	-mi-	8a/	-mi-	.	.
2E\	-num	2e/	-num	2b\	-num	.	.
=40	=40	=40	=40	=40	=40	=40	=40
2AA/	in	2e/	in	2a/	in	2cc\	in
4GG/	om-	4g/	om-	4b\	om-	4dd\	om-
4C/	-ni	4g/	-ni	4cc\	-ni	4ee\	-ni
=41	=41	=41	=41	=41	=41	=41	=41
2.GG/	tem-	2.g/	tem-	2.b\	tem-	2.dd\	tem-
4GG/	-po-	4g/	-po-	4b\	-po-	4dd\	-po-
=42	=42	=42	=42	=42	=42	=42	=42
1C	-re	1g	-re	1cc	-re	1cc	-re
=43	=43	=43	=43	=43	=43	=43	=43
1G	in	1g	in	1b	in	1dd	in
=44	=44	=44	=44	=44	=44	=44	=44
2E\	om-	2a/	om-	2cc#\	om-	2ee\	om-
2D\	-ni	2a/	-ni	2dd\	-ni	2ff\	-ni
=45	=45	=45	=45	=45	=45	=45	=45
2.AA/	tem-	2.a/	tem-	2.cc#\	tem-	2.ee\	tem-
4AA/	-po-	4a/	-po-	4cc#\	-po-	4ee\	-po-
=46	=46	=46	=46	=46	=46	=46	=46
1D	-re	1a	-re	1dd	-re	1dd	-re
=47	=47	=47	=47	=47	=47	=47	=47
1C	in	1g	in	1cc	in	1ee	in
=48	=48	=48	=48	=48	=48	=48	=48
2E\	om-	2e/	om-	2g#/	om-	2b\	om-
2AA/	-ni	2e/	-ni	2a/	-ni	2cc\	-ni
=49	=49	=49	=49	=49	=49	=49	=49
2.E\	tem-	2.e/	tem-	2.g#/	tem-	2.b\	tem-
4E\	-po-	4e/	-po-	4g#/	-po-	4b\	-po-
=50	=50	=50	=50	=50	=50	=50	=50
1E	-re	1e	-re	1g#i	-re	1b	-re
=51	=51	=51	=51	=51	=51	=51	=51
4C/	sem-	4g/	sem-	4cc\	sem-	4ee\	sem-
4C/	-per	4g/	-per	4cc\	-per	4ee\	-per
4D\	sem-	4a/	sem-	4dd\	sem-	4ff\	sem-
4D\	-per	4a/	-per	4dd\	-per	4ff\	-per
=52	=52	=52	=52	=52	=52	=52	=52
4GG/	sem-	4g/	sem-	4b\	sem-	4dd\	sem-
4GG/	-per	4g/	-per	4b\	-per	4dd\	-per
2C/	la~us	2g/	la~us	2cc\	la~us	2ee\	la~us
=53	=53	=53	=53	=53	=53	=53	=53
4AA/	sem-	4e/	sem-	4a/	sem-	4cc\	sem-
4AA/	-per	4e/	-per	4a/	-per	4cc\	-per
4D\	sem-	4f/	sem-	4b\	sem-	4dd\	sem-
4D\	-per	4f/	-per	4b\	-per	4dd\	-per
=54	=54	=54	=54	=54	=54	=54	=54
4E\	sem-	4e/	sem-	4g#/	sem-	4b\	sem-
4E\	-per	4e/	-per	4g#/	-per	4b\	-per
2AA/	la~us	2e/	la~us	2a/	la~us	2cc\	la~us
=55	=55	=55	=55	=55	=55	=55	=55
2C/	in	2g/	in	2cc\	in	2ee\	in
4D\	o-	4f/	o-	4b\	o-	4dd\	o-
4AA/	-re	4e/	-re	4a/	-re	4cc\	-re
=56	=56	=56	=56	=56	=56	=56	=56
2E\	me-	2e/	me-	2g#/	me-	2b\	me-
2AA/	-o	2e/	-o	2a/	-o	2a/	-o
=57||	=57||	=57||	=57||	=57||	=57||	=57||	=57||
4A\	sem-	1r	.	1r	.	4ee\	sem-
4A\	-per	.	.	.	.	4ee\	-per
4E\	sem-	.	.	.	.	4b\	sem-
4E\	-per	.	.	.	.	4b\	-per
=58	=58	=58	=58	=58	=58	=58	=58
4A\	sem-	4a/	sem-	4ee\	sem-	4cc\	sem-
4A\	-per	4a/	-per	4ee\	-per	4cc\	-per
2E\	la~us	4g#/	sem-	4b\	sem-	2b\	la~us
.	.	4g#/	-per	4b\	-per	.	.
=59	=59	=59	=59	=59	=59	=59	=59
4A\	sem-	4a/	sem-	4cc\	sem-	4ee\	sem-
4A\	-per	4a/	-per	4cc\	-per	4ee\	-per
4E\	sem-	2g#/	la~us	2b\	la~us	4b\	sem-
4E\	-per	.	.	.	.	4b\	-per
=60	=60	=60	=60	=60	=60	=60	=60
4A\	sem-	4a/	sem-	4ee\	sem-	4cc\	sem-
4A\	-per	4a/	-per	4ee\	-per	4cc\	-per
2E\	la~us	4e/	sem-	4b\	sem-	2b\	la~us
.	.	4e/	-per	4b\	-per	.	.
=61	=61	=61	=61	=61	=61	=61	=61
4A\	sem-	4a/	sem-	4cc\	sem-	1r	.
4A\	-per	4a/	-per	4cc\	-per	.	.
2E\	la~us	2g#/	la~us	2b\	la~us	.	.
=62	=62	=62	=62	=62	=62	=62	=62
2D\	.	2d/	in	2f#/	in	2a/	in
4E\	in	4e/	o-	4g#/	o-	4dd\	o-
4AA/	o-	4e/	-re	4a/	-re	4cc\	-re
=63	=63	=63	=63	=63	=63	=63	=63
2E\	-re	2e/	me-	2g#i/	me-	2b\	me-
2AA/	me-	2e/	-o	2a/	-o	2a/	-o
=64	=64	=64	=64	=64	=64	=64	=64
1D	-o	1g	in	1b	in	1dd	in
=65	=65	=65	=65	=65	=65	=65	=65
2BB/	in	2g/	o-	2b\	o-	2dd\	o-
2AA/	o-	2e/	-re	2a/	-re	2cc\	-re
=66	=66	=66	=66	=66	=66	=66	=66
1E	-re	1e	me-	1g#	me-	1b	me-
=67	=67	=67	=67	=67	=67	=67	=67
[1AA	me-	[1e	-o.	[1a	-o.	[1a	-o.
=68	=68	=68	=68	=68	=68	=68	=68
1AA]	.	1e]	.	1a]	.	1a]	.
==	==	==	==	==	==	==	==
*-	*-	*-	*-	*-	*-	*-	*-
!!!GTL: Hymnbook L 1642
!!!EFL: 39/39
!!!YEM: Creative Commons CC/BY/NC/SA 4.0
!!!ENC: Marcin Konik
!!!END: 2015-02-25 
!!!EED: Marcin Konik
!!!EEV: 
!!!ONB: Translated from MusicXML and edited by Marcin Konik
!!!CharacterEncoding: utf-8
!!!RDF**kern: i=editorial accidental
!!muse2ps: z14jc180F
!!title: @{OTL}, @{GTL}: @{pag}, ed. @{ENC}
